X:1
T:Title
%%score { ( 1 4 ) | ( 2 3 ) }
L:1/8
M:4/4
K:F
V:1 treble nm="Grand Piano"
V:4 treble 
V:2 bass 
V:3 bass 
V:1
 z4 z2[Q:1/4=90] F2 | A2 c2 F2 GA | .[DB]2 .[G,DG]2 [G,CE]2 .[G,CD]2 | %3
 [A,CF]2 .[CFc]2 [Dc]2 [DFB]2 |[M:3/4] [CEB]2 .[CEA]2 [CFA]2 |[M:1/4] F z | %6
[M:4/4] [F,B,D]2 [Bd]-[EBd] [^FAd]2 .[DAd]2 | [DGB]2 [D^FA]2 [DG]2 [G,CE]2 | %8
 C-[Cc][Ec]B [CFA]2 .[CEG]2 |[M:3/4] [A,F]6 |] %10
V:2
 z4 z2 [F,A,C]2 | [F,CF]2 [E,G,C]2 [D,A,D]2 [D,F,D]2 | z A z F C,2 z E | z2 A,2 z4 | %4
[M:3/4] C,2 z G F,2 |[M:1/4] z E |[M:4/4] B,,2 B,C D2 z[K:treble] c | G,2[K:bass] A,2 B,2 B,,2 | %8
 z F z D C,2 z B, |[M:3/4] F,6 |] %10
V:3
 x8 | x8 | [B,,G,]2 =B,,2 z2 _B,,2 | A,,2 z E B,2 G,2 |[M:3/4] z2 C,2 z2 |[M:1/4] A,,2 | %6
[M:4/4] z4 z2 ^F,2[K:treble] | x2[K:bass] x6 | A,,2 B,,2 z2 C,2 |[M:3/4] x6 |] %10
V:4
 x8 | x8 | x8 | x8 |[M:3/4] x6 |[M:1/4] [F,C]2 |[M:4/4] z2 .D2 z4 | x8 | .[A,F]2 F2 z4 | %9
[M:3/4] x6 |] %10

